assets/svg/youzan-shield.svg

<?xml version="1.0" encoding="UTF-8"?>
<svg width="1000px" height="1000px" viewBox="0 0 1000 1000" version="1.1" xmlns="http://www.w3.org/2000/svg" xmlns:xlink="http://www.w3.org/1999/xlink">
    <!-- Generator: sketchtool 52.4 (67378) - http://www.bohemiancoding.com/sketch -->
    <title>youzan-shield</title>
    <desc>Created with sketchtool.</desc>
    <g id="新版图标" stroke="none" stroke-width="1" fill="none" fill-rule="evenodd">
        <g id="youzan-shield" fill="#323233">
            <g id="有赞担保">
                <path d="M547.588489,13.3070001 L895.833333,118.86393 L895.833333,567.908021 C895.833333,643.485074 895.833333,843.026114 489.586574,1000 C83.372226,843.026114 83.3333333,643.485074 83.3333333,567.908021 L83.3333333,118.86393 L438.727944,11.731922 C441.806946,10.8042277 444.788716,9.64961537 447.712148,8.45495867 C486.079753,-7.18236343 519.358903,2.69524506 532.174033,7.82092299 C537.197668,9.82981498 542.318534,11.7118998 547.588489,13.3070001 Z M270.833333,503.2321 L270.833333,716.07937 C274.545217,723.650987 282.536248,727.993904 291.778961,726.449193 L346.002055,717.415165 L346.002055,479.409362 C321.467862,484.303057 285.909006,491.083326 285.909006,491.083326 C279.440957,492.32416 273.799141,497.141886 270.833333,503.2321 Z M369.457212,713.509072 L630.207773,670.073566 C649.396114,666.882852 663.109118,648.131071 661.321001,628.157449 C661.321001,628.157449 659.520553,621.041649 661.129858,610.975703 C662.739163,600.909757 670.674701,595.376653 672.136024,574.282482 C673.276719,557.961723 668.029522,555.764941 669.49701,538.317302 C670.964499,520.875993 678.129297,518.065125 679.898916,495.400921 C681.668535,472.724054 673.307549,467.171957 674.916854,451.528591 C676.513827,435.891556 679.45497,426.996806 679.45497,426.996806 C685.688714,400.350538 669.349028,381.364519 642.977392,384.580557 L556.081091,395.209942 C543.021674,396.798969 533.261024,387.131862 534.272235,373.590317 L541.566517,275.741728 C544.298019,239.067499 517.963378,213.908966 482.755979,219.537032 L487.300262,218.808992 C474.018871,220.936136 461.964499,233.812949 460.157885,247.538088 C460.157885,247.538088 439.853513,453.041649 369.457212,474.370058 L369.457212,713.509072 Z" id="Combined-Shape"></path>
            </g>
        </g>
    </g>
</svg>

<svg width="1000" height="1000" xmlns="http://www.w3.org/2000/svg"><path d="M547.588 13.307l348.245 105.557v449.044c0 75.577 0 275.118-406.246 432.092C83.372 843.026 83.333 643.485 83.333 567.908V118.864L438.728 11.732c3.079-.928 6.06-2.082 8.984-3.277 38.368-15.637 71.647-5.76 84.462-.634 5.024 2.009 10.145 3.89 15.414 5.486zM270.833 503.232V716.08c3.712 7.572 11.703 11.915 20.946 10.37l54.223-9.034V479.41c-24.534 4.894-60.093 11.674-60.093 11.674-6.468 1.241-12.11 6.059-15.076 12.15zm98.624 210.277l260.75-43.435c19.19-3.191 32.902-21.943 31.114-41.917 0 0-1.8-7.115-.191-17.181 1.61-10.066 9.545-15.6 11.006-36.694 1.14-16.32-4.106-18.517-2.639-35.965 1.467-17.441 8.632-20.252 10.402-42.916 1.77-22.677-6.591-28.229-4.982-43.872 1.597-15.637 4.538-24.532 4.538-24.532 6.234-26.646-10.106-45.632-36.478-42.416l-86.896 10.629c-13.06 1.589-22.82-8.078-21.809-21.62l7.295-97.848c2.731-36.675-23.604-61.833-58.811-56.205l4.544-.728c-13.281 2.127-25.336 15.004-27.142 28.73 0 0-20.304 205.503-90.7 226.831v239.14z" fill="#323233" fill-rule="evenodd"/></svg>
